X: 1
T: Battering Ram, The
C: Trad.
M: 6/8
R: Jig
L: 1/8
S: https://thesession.org/tunes/382
K: G
|:dBG BAG|dBG G2B|dBG AGE|GFD D2B|
dBG BAG|BdB BAG|AGA BAB|GED D2B:|
|:deg ~a3|bge edB|deg ~a3|bge ega|
bag age|ged ege|dAG AGE|GED D2B:|
|:B2G A2G|BGE DED|BAG AGE|GED D2B|
B2G A2G|BdB BAG|AGA BAB|GED D3:| 
